img/arrow-40.svg

<svg fill="none" height="11" viewBox="0 0 13 11" width="13" xmlns="http://www.w3.org/2000/svg"><path d="m12.1634 2.70561c.0811-.46048-.2263-.89959-.6868-.98078l-7.50388-1.323139c-.46048-.081194-.89959.226274-.98078.686749-.0812.46048.22627.89959.68675.98078l6.67011 1.17612-1.17611 6.67013c-.0812.46043.22627.89963.68675.98073.46046.0812.89956-.2262.98076-.6867zm-11.14924 6.04239c-.38302.26819-.476105.7961-.207912 1.17912.268192.38298.796102.47608 1.179122.20788zm9.82984-6.88292-9.82984 6.88292.97121 1.387 9.82983-6.88289z" fill="#fff"/></svg>

<svg width="13" height="11" viewBox="0 0 13 11" fill="none" xmlns="http://www.w3.org/2000/svg">
<path d="M12.1634 2.70561C12.2445 2.24513 11.9371 1.80602 11.4766 1.72483L3.97272 0.401691C3.51224 0.320497 3.07313 0.627965 2.99194 1.08844C2.91074 1.54892 3.21821 1.98803 3.67869 2.06922L10.3488 3.24534L9.17269 9.91547C9.09149 10.3759 9.39896 10.8151 9.85944 10.8962C10.3199 10.9774 10.759 10.67 10.8402 10.2095L12.1634 2.70561ZM1.01416 8.748C0.63114 9.01619 0.538055 9.5441 0.806248 9.92712C1.07444 10.3101 1.60235 10.4032 1.98537 10.135L1.01416 8.748ZM10.844 1.86508L1.01416 8.748L1.98537 10.135L11.8152 3.25211L10.844 1.86508Z" fill="white"/>
</svg>
